X:17180
T:The Rose in the Heather
R:Jig
D:Frankie Gavin: Frankie Goes to Town
A:Ireland
M:6/8
K:D
~F3 EDB,|DFA BAF|ABd ede|fdB AFE|
D2F EDB,|DFA BAF|AdB AFE|1 FDD D3:|2 FDD D2e||
|:fdB AFA|dfa afd|~g3 fed|Bee ede|
fdB AFA|dfa afa|baf gfe|1 fdd d2e:|2 fdB AFE||
